X:1
T:Inspector Donald Campbell of Ness  "CYMRU"
M:6/8
L:1/8
Q:80
C:P. MacLeod
S:Jig
K:HP
|: e | \
{g}A{d}A{e}A{gcd}c2{e}B | \
{d}cf{e}f{gef}ec{G}A | \
{ag}a3ec{G}c |
{g}fe{A}e{g}fa{g}a | | \
{g}A{d}A{e}A{gcd}c2{e}B | \
{d}cf{e}f{gef}ec{G}A |
ac{G}c{g}Bc{G}c | \
{gef}ec{G}A{GAG}A2 :: \
e |
{gefe}f3{g}fec | \
{ecfc}e3ec{e}B | \
{g}{cGdG}c3{g}c{d}B{e}c |
{g}A{d}ce{g}fa{g}a | | \
{fg}f3{g}fec | \
{ecfc}e3ec{e}B |
ac{G}c{g}Bc{G}c | \
{gef}ec{G}A{GAG}A2 :: \
a |
{cd}c3{gBd}B3 | \
{d}cf{e}f{gef}ec{G}A | \
{ag}a3{fg}f3 |
{g}ea{g}a{fg}fe{g}f | | \
{cd}c3{gBd}B3 | \
{d}cf{e}f{gef}ec{G}A |
ac{G}c{g}Bc{G}c | \
{gef}ec{G}A{GAG}A2 :: \
a |
{cd}c3{g}c{d}B{e}c | \
{ecfc}e3{g}ece | \
{gefe}f3{g}fef |
af{g}e{g}fa{g}a | | \
{cd}c3{g}c{d}B{e}c | \
{g}ef{e}f{g}A{d}ce |
ac{G}c{g}Bc{G}c | \
{gef}ec{G}A{GAG}A2 :|
